X: 11717
T: El Paso
R: reel
M: 4/4
K: Bminor
|:F2BF cFdF|eeed edBA|F2BF cFdF|1 edBA BBBA:|2 edBA B4||
|:F2BF cFdF|e(3eeed edBA|F2BF cFdF|1 edBA B2BA:|2 edBA B3e||
|:fBBf BBfB|g3f efgd|(3cBA eA f2ef|1 g2gf efga:|2 dBBA B3e||
|:fBBf BBfB|g3f efgd|(3cBA eA f2ef|1 g2gf efga:|2 dBBA B4||

